src/img/icon-excel.svg

<svg enable-background="new 0 0 459 459" viewBox="0 0 459 459" xmlns="http://www.w3.org/2000/svg"><path d="m408 0h-357c-28.05 0-51 22.95-51 51v357c0 28.05 22.95 51 51 51h357c28.05 0 51-22.95 51-51v-357c0-28.05-22.95-51-51-51zm-71.4 357h-51l-56.1-96.9-56.1 96.9h-51l81.6-127.5-81.6-127.5h51l56.1 96.9 56.1-96.9h51l-81.6 127.5z"/></svg>

<?xml version="1.0" encoding="iso-8859-1"?>
<!-- Generator: Adobe Illustrator 16.0.0, SVG Export Plug-In . SVG Version: 6.00 Build 0)  -->
<!DOCTYPE svg PUBLIC "-//W3C//DTD SVG 1.1//EN" "http://www.w3.org/Graphics/SVG/1.1/DTD/svg11.dtd">
<svg version="1.1" id="Capa_1" xmlns="http://www.w3.org/2000/svg" xmlns:xlink="http://www.w3.org/1999/xlink" x="0px" y="0px"
	 viewBox="0 0 459 459" style="enable-background:new 0 0 459 459;" xml:space="preserve">
<g>
	<g id="drive-ms-excel">
		<path d="M408,0H51C22.95,0,0,22.95,0,51v357c0,28.05,22.95,51,51,51h357c28.05,0,51-22.95,51-51V51C459,22.95,436.05,0,408,0z
			 M336.6,357h-51l-56.1-96.9L173.4,357h-51L204,229.5L122.4,102h51l56.1,96.9l56.1-96.9h51L255,229.5L336.6,357z"/>
	</g>
</g>
<g>
</g>
<g>
</g>
<g>
</g>
<g>
</g>
<g>
</g>
<g>
</g>
<g>
</g>
<g>
</g>
<g>
</g>
<g>
</g>
<g>
</g>
<g>
</g>
<g>
</g>
<g>
</g>
<g>
</g>
</svg>
